icons/1_Primary/Systemli.svg

<svg width="1024" height="1024" fill="none" xmlns="http://www.w3.org/2000/svg"><g clip-path="url(#a)"><path d="M512 1024c282.77 0 512-229.23 512-512S794.77 0 512 0 0 229.23 0 512s229.23 512 512 512Z" fill="#9ABEFF"/><path d="M429.85 563.59H450v-41.53h20.77v-41.53H450v-20.77h-20.8V439h-61.64v41.53h-20.77v20.77H326v41.53h20.77v20.77h20.77v20.77h62.3m-41.52-102.55h41.53v41.53h-41.53v-41.53ZM552.5 645.35h-20.12v-20.11h20.12v20.11Zm-225.83 40.89h20.12V707h-40.88v-20.76h-20.77v-40.89h20.77v20.77h20.77l-.01 20.12Zm-41.53-81.76H265v-40.89h20.12l.02 40.89Zm103.18 122.64h20.12v20.77h-20.12v-20.77Zm411.42-267.36V439h-10.38v-41.53h-20.77V439h-10.38v20.77h-20.77V379.3h-20.76v-20.77h-20.77v-20.77h-20.76V317h-20.77v-19.47h-20.77v-20.76h-40.23V256H429.2v21.41h-41.53v20.77h-20.11v20.12h-20.77v20.77h-41.53v20.77h-10.38V318.3h-31.15v20.77h-19.47v20.77H223.5v50.62h31.15V379.3h31.15v20.77H265v20.77h-20.74v41.53h31.15v-20.78h20.77v-20.76h20.77v-20.77h10.38v-10.38h20.77V379.3h40.23v-20.77h20.77v-20.77h62.3v41.54h40.23v20.77h41.53v20.77h20.77v41.53h-20.78v20.77h-20.77v62.3h20.77v20.77h20.77v18.17h81.76v-20.79h20.77v-62.3H718v20.77h20.77v62.3h19.47v-20.77H779v-62.3h41.5v-41.53m-185.59 62.95H594v-41.53h40.88l.03 41.53Zm82.41 61.65h20.12v61h-20.11v20.77h-20.77v20.12h-20.77V707h-20.11v20.12h-41.53V707h20.77v-20.76h20.77v-20.12h20.12v-20.77h20.77v-20.11h20.77l-.03-40.88ZM429.2 747.88h144.06V768H429.2v-20.12ZM388.32 707v20.12h-20.76V707h20.76Zm82.41-61.65h61.65v20.77h-61.65v-20.77Z" fill="#fff"/></g><defs><clipPath id="a"><path fill="#fff" d="M0 0h1024v1024H0z"/></clipPath></defs></svg>

<svg width="1024" height="1024" viewBox="0 0 1024 1024" fill="none" xmlns="http://www.w3.org/2000/svg">
<g clip-path="url(#clip0_2_3597)">
<path d="M512 1024C794.77 1024 1024 794.77 1024 512C1024 229.23 794.77 0 512 0C229.23 0 0 229.23 0 512C0 794.77 229.23 1024 512 1024Z" fill="#9ABEFF"/>
<path d="M429.85 563.59H450V522.06H470.77V480.53H450V459.76H429.2V439H367.56V480.53H346.79V501.3H326V542.83H346.77V563.6H367.54V584.37H429.84M388.32 481.82H429.85V523.35H388.32V481.82ZM552.5 645.35H532.38V625.24H552.5V645.35ZM326.67 686.24H346.79V707H305.91V686.24H285.14V645.35H305.91V666.12H326.68L326.67 686.24ZM285.14 604.48H265V563.59H285.12L285.14 604.48ZM388.32 727.12H408.44V747.89H388.32V727.12ZM799.74 459.76V439H789.36V397.47H768.59V439H758.21V459.77H737.44V379.3H716.68V358.53H695.91V337.76H675.15V317H654.38V297.53H633.61V276.77H593.38V256H429.2V277.41H387.67V298.18H367.56V318.3H346.79V339.07H305.26V359.84H294.88V318.3H263.73V339.07H244.26V359.84H223.5V410.46H254.65V379.3H285.8V400.07H265V420.84H244.26V462.37H275.41V441.59H296.18V420.83H316.95V400.06H327.33V389.68H348.1V379.3H388.33V358.53H409.1V337.76H471.4V379.3H511.63V400.07H553.16V420.84H573.93V462.37H553.15V483.14H532.38V545.44H553.15V566.21H573.92V584.38H655.68V563.59H676.45V501.29H718V522.06H738.77V584.36H758.24V563.59H779V501.29H820.5V459.76M634.91 522.71H594V481.18H634.88L634.91 522.71ZM717.32 584.36H737.44V645.36H717.33V666.13H696.56V686.25H675.79V707H655.68V727.12H614.15V707H634.92V686.24H655.69V666.12H675.81V645.35H696.58V625.24H717.35L717.32 584.36ZM429.2 747.88H573.26V768H429.2V747.88ZM388.32 707V727.12H367.56V707H388.32ZM470.73 645.35H532.38V666.12H470.73V645.35Z" fill="white"/>
</g>
<defs>
<clipPath id="clip0_2_3597">
<rect width="1024" height="1024" fill="white"/>
</clipPath>
</defs>
</svg>
